X: 38497
T: Steele's Rock
R: jig
M: 6/8
K: Amixolydian
A,B,A, B,CD|E2 F G2 G|FED EDB,|C2 D E2 C|
A,B,A, B,CD|E2 F G2 G|FED B,A,G,|1 A,B,A, A,2 E,:|2 A,B,A, A,2 E||
|:A2 A ABA|GFG EFG|AGF GED|CDE "(8ave)" E,F,G,|
A,B,A, B,CD|E2 F G3|FED B,A,G,|1 A,B,A, A,2 E:|2 A,B,A, A,2 E,||

